X: 1295
T: An Grianán
R: jig
M: 6/8
K: Aminor
G|:EAA ABc|BdB GAG|EAA cBc|dcd eag|
eAA ABc|BdB G2^g|age edB|1 BAG A2G:|2 BAG A2B||
cBc dcd|ecA AGE|cBc dcd|egb a2g|
efg a3|gec dBG|Acd ege|dBG A2B|
cBc dcd|ecA AGE|cBc dcd|egb a2b|
c'ba age|edB dBG|Acd ege|dBG A2G||

